lib/logotmp/nrk-logo-nrk-sapmi-on-dark.svg

<svg width="87" height="24" viewBox="0 0 87 24" fill="none" xmlns="http://www.w3.org/2000/svg">
<path d="M0 17.9973V5.9984H4V17.9973H0ZM9.24381 7.90809L11.5081 17.9973H7.19917L4.49549 5.9984H6.91217C7.46635 5.99121 8.00406 6.18656 8.4245 6.5477C8.84562 6.8937 9.08495 7.37401 9.24381 7.90809ZM12 17.9973V5.9984H16V17.9973H12ZM19.0105 10.5614C18.5862 10.5655 18.1687 10.4545 17.8025 10.2403C17.4412 10.0314 17.1411 9.73127 16.9323 9.36991C16.7178 9.00364 16.6068 8.58607 16.611 8.16163C16.6061 7.73978 16.7172 7.32469 16.9323 6.96174C17.1433 6.6043 17.4431 6.30741 17.8025 6.09983C18.1689 5.88582 18.5862 5.77483 19.0105 5.7787C19.4322 5.77416 19.8471 5.88524 20.2102 6.09983C20.566 6.30923 20.8626 6.60588 21.072 6.96174C21.2868 7.32479 21.3979 7.73981 21.3933 8.16163C21.3973 8.58604 21.2863 9.00354 21.072 9.36991C20.8649 9.72969 20.5679 10.0296 20.2102 10.2403C19.8471 10.4553 19.4324 10.5664 19.0105 10.5614ZM22 17.9973V5.9984H26V17.9973H22ZM30.9737 12.5555C30.9848 12.5672 31.0693 12.7052 31.2272 12.9696C31.3851 13.234 31.5906 13.572 31.8439 13.9836C32.0974 14.395 32.3649 14.8316 32.6463 15.2933C32.9278 15.755 33.1926 16.1917 33.4408 16.6031C33.6881 17.0145 33.9697 17.4792 34.2857 17.9973H29.9598C29.6893 17.5579 29.4441 17.1608 29.2245 16.8059C29.0048 16.451 28.7713 16.0679 28.5238 15.6567C28.2758 15.2458 28.0306 14.8458 27.7882 14.4568C27.5458 14.0677 27.3375 13.7269 27.1633 13.4344C26.9883 13.1416 26.8671 12.9444 26.7997 12.8428C26.6325 12.5908 26.5336 12.2996 26.5127 11.9979C26.5294 11.7082 26.6226 11.4283 26.7828 11.1864C26.8503 11.0738 26.9743 10.8737 27.1545 10.5864C27.3348 10.2991 27.546 9.95837 27.7882 9.56404C28.0304 9.16971 28.2756 8.76692 28.5238 8.35569C28.772 7.94446 29.0055 7.55855 29.2245 7.19802C29.4445 6.83787 29.6897 6.4379 29.9598 5.99813H34.2857L30.9396 11.4568C30.8361 11.6189 30.7777 11.8057 30.7706 11.9979C30.7818 12.1996 30.8528 12.3936 30.9737 12.5555Z" fill="white"/>
<path d="M45.6564 12.36C45.4127 12.1084 45.1299 11.899 44.8193 11.7402C44.4937 11.5731 44.1548 11.434 43.8063 11.3243C43.4488 11.2111 43.0804 11.1148 42.7013 11.0354C42.4107 10.9676 42.1401 10.8998 41.8893 10.8319C41.6588 10.7716 41.4345 10.6891 41.2196 10.5854C41.0348 10.4967 40.863 10.3825 40.7092 10.2459C40.5643 10.1163 40.4522 9.95338 40.3824 9.77073C40.3051 9.55594 40.2683 9.32838 40.2736 9.0998C40.2698 8.86312 40.3066 8.62758 40.3824 8.40369C40.4511 8.20617 40.566 8.02847 40.7173 7.88582C40.874 7.74026 41.0521 7.62012 41.245 7.52957C41.4654 7.42767 41.6994 7.359 41.9395 7.3258C42.2252 7.28453 42.5135 7.26468 42.8021 7.26639C43.0648 7.26691 43.3273 7.28099 43.5887 7.30857C43.8532 7.33656 44.116 7.37914 44.3759 7.43617C44.6282 7.49171 44.877 7.56258 45.1209 7.6484C45.3493 7.72804 45.5706 7.82737 45.7823 7.94527L46.0167 6.45141C45.7786 6.32546 45.5291 6.22312 45.2716 6.14581C45.0091 6.06677 44.7441 5.99874 44.4764 5.94177C44.2053 5.88496 43.9314 5.84255 43.6559 5.81472C43.3769 5.78642 43.0923 5.77226 42.8021 5.77226C42.21 5.76577 41.6195 5.83412 41.0441 5.97572C40.5541 6.09568 40.0912 6.30898 39.6798 6.60423C39.3006 6.87999 38.9955 7.2476 38.7924 7.67358C38.5757 8.15235 38.4698 8.67503 38.4827 9.20167C38.4731 9.60923 38.5384 10.015 38.6752 10.3984C38.7952 10.7198 38.9805 11.012 39.2191 11.2561C39.4552 11.4949 39.7263 11.6953 40.0228 11.8503C40.3372 12.0146 40.665 12.1511 41.0025 12.2581C41.3541 12.3713 41.714 12.4675 42.0824 12.5468C42.3838 12.6145 42.6628 12.6852 42.9195 12.759C43.1583 12.8257 43.3907 12.9137 43.6141 13.0221C43.8062 13.1142 43.984 13.2343 44.1418 13.3787C44.2913 13.5212 44.4083 13.695 44.4847 13.8881C44.5736 14.1207 44.6164 14.3687 44.6106 14.6181C44.615 14.8833 44.5754 15.1473 44.4934 15.3992C44.4199 15.617 44.3062 15.8186 44.1585 15.9934C44.01 16.1657 43.8275 16.3044 43.6227 16.4006C43.3914 16.5087 43.1462 16.5831 42.8944 16.6216C42.587 16.6694 42.2764 16.6922 41.9655 16.6895C41.6632 16.6888 41.3612 16.6689 41.0614 16.6301C40.7488 16.5905 40.4362 16.5366 40.1235 16.4685C39.8155 16.402 39.5111 16.3198 39.2112 16.2223C38.9151 16.1267 38.6332 16.0277 38.3657 15.9255L38.5834 17.6064C38.8688 17.7144 39.1594 17.8078 39.454 17.8863C39.7215 17.9574 39.9924 18.0141 40.2658 18.056C40.5281 18.0955 40.7905 18.1266 41.053 18.1494C41.3155 18.1722 41.5804 18.1836 41.848 18.1834C42.4474 18.1871 43.0454 18.1245 43.6314 17.9966C44.15 17.8863 44.6439 17.679 45.0877 17.3854C45.502 17.1074 45.837 16.7239 46.0591 16.2733C46.3035 15.7395 46.421 15.1551 46.402 14.5669C46.4112 14.1287 46.3462 13.6922 46.2098 13.2763C46.0927 12.9339 45.904 12.6213 45.6564 12.36Z" fill="#9FDAF5"/>
<path d="M55.677 16.9272C55.5546 16.9386 55.4313 16.9198 55.3176 16.8725C55.2038 16.8252 55.103 16.7508 55.0237 16.6556C54.8685 16.3835 54.804 16.0679 54.8399 15.7557L54.873 12.2581C54.8768 11.8914 54.8317 11.5259 54.7391 11.1715C54.6579 10.8605 54.5218 10.567 54.3373 10.3053C54.151 10.0495 53.9145 9.83564 53.6427 9.67706C53.3267 9.49536 52.9851 9.36376 52.6298 9.28683C52.1953 9.19168 51.7517 9.14612 51.3071 9.15101C50.9544 9.15074 50.602 9.17333 50.2521 9.21864C49.9216 9.26104 49.5943 9.32634 49.2726 9.41416C48.9743 9.49613 48.6807 9.59535 48.3936 9.7113L48.1927 11.1545C48.4717 11.0529 48.7371 10.968 48.988 10.8998C49.2388 10.8316 49.4819 10.7753 49.7163 10.73C49.946 10.6856 50.1782 10.6545 50.4114 10.6369C50.6399 10.6199 50.8658 10.6113 51.0892 10.6111C51.4306 10.6038 51.7714 10.6438 52.1021 10.73C52.3435 10.7913 52.5655 10.9141 52.747 11.0868C52.9086 11.2547 53.024 11.4625 53.0819 11.6896C53.1533 11.9695 53.1871 12.2579 53.1823 12.547L53.1804 12.9729L51.2237 13.1073C50.5543 13.1262 49.8949 13.276 49.2815 13.5484C48.8225 13.7522 48.4262 14.0777 48.1343 14.4908C47.8868 14.8584 47.7555 15.2936 47.7577 15.7387C47.7545 16.1564 47.8554 16.5683 48.0509 16.936C48.2556 17.3136 48.5638 17.623 48.938 17.8271C49.3948 18.068 49.9052 18.185 50.4197 18.1667C50.9018 18.1779 51.3817 18.0973 51.8345 17.9292C52.226 17.7739 52.5842 17.5433 52.8893 17.2501C53.0054 17.1376 53.1153 17.0188 53.2189 16.8944C53.2514 17.0703 53.3127 17.2394 53.4003 17.3947C53.5494 17.6546 53.7787 17.8575 54.0529 17.972C54.3561 18.0955 54.6807 18.1561 55.0073 18.1502C55.1081 18.1502 55.2054 18.1471 55.3003 18.1417C55.3934 18.1361 55.4859 18.1218 55.5765 18.099C55.6658 18.0764 55.7468 18.0569 55.8193 18.0396C55.8849 18.0249 55.9493 18.005 56.0118 17.9802L56.1961 16.8429C56.1037 16.875 56.0085 16.8977 55.9117 16.9108C55.8339 16.9211 55.7555 16.9266 55.677 16.9272ZM52.8891 16.1632C52.7075 16.3087 52.511 16.4341 52.303 16.537C52.0958 16.6391 51.8763 16.7133 51.6501 16.7577C51.4156 16.8034 51.1773 16.8261 50.9385 16.8253C50.6657 16.8334 50.3944 16.7813 50.1435 16.6725C49.9391 16.5828 49.7667 16.4318 49.6493 16.2398C49.5333 16.0363 49.4754 15.8041 49.4819 15.5692C49.4657 15.286 49.5423 15.0053 49.6998 14.7709C49.882 14.5552 50.129 14.4061 50.4028 14.3465C50.8305 14.2445 51.2694 14.1989 51.7087 14.2109H53.1748L53.1676 15.896C53.0823 15.9928 52.9892 16.0823 52.8891 16.1632Z" fill="#9FDAF5"/>
<path d="M53.9523 5.11011H52.1443L50.7211 8.14928H52.0273L53.9523 5.11011Z" fill="#9FDAF5"/>
<path d="M64.2239 9.68581C63.623 9.31272 62.9273 9.12675 62.2232 9.15098C61.8052 9.15309 61.3892 9.20716 60.9842 9.31199C60.5466 9.42499 60.1247 9.59336 59.7285 9.81314C59.6498 9.85643 59.5719 9.90454 59.4938 9.95321V9.16794L57.7863 9.43962V21.5621H59.4938V17.7608C59.5052 17.7656 59.5159 17.771 59.5276 17.7761C59.837 17.9062 60.1599 18.0002 60.4903 18.0563C60.8804 18.1215 61.2753 18.1528 61.6707 18.1496C62.4244 18.1628 63.1677 17.9691 63.8218 17.5891C64.4643 17.203 64.9865 16.6411 65.3286 15.9679C65.7238 15.1651 65.9164 14.2755 65.8893 13.3786C65.9051 12.6204 65.7596 11.8676 65.4627 11.1714C65.2007 10.5648 64.7703 10.0486 64.2239 9.68581ZM63.7803 15.3651C63.5791 15.816 63.242 16.1905 62.8176 16.4345C62.3457 16.6852 61.818 16.8081 61.2856 16.7914C61.0305 16.7915 60.7758 16.7716 60.5237 16.7316C60.2593 16.689 59.9989 16.6238 59.7453 16.5367C59.6649 16.5084 59.5778 16.4761 59.4941 16.445V11.0868C59.5164 11.0763 59.5393 11.0628 59.5613 11.0526C59.8069 10.9394 60.0357 10.8431 60.2478 10.7637C60.4486 10.6876 60.656 10.6307 60.8673 10.5939C61.0553 10.5611 61.2455 10.544 61.4362 10.5429C61.9525 10.5255 62.4648 10.6394 62.9266 10.874C63.3302 11.0969 63.6463 11.4534 63.8221 11.884C64.0351 12.435 64.1349 13.0243 64.1154 13.6158C64.1331 14.2169 64.0187 14.8145 63.7803 15.3651Z" fill="#9FDAF5"/>
<path d="M79.5347 9.50756C79.0782 9.25619 78.5638 9.13309 78.0446 9.15101C77.594 9.14978 77.1465 9.2273 76.7219 9.3802C76.2906 9.53684 75.8844 9.75702 75.5164 10.0336C75.3079 10.1904 75.1095 10.3605 74.9223 10.543C74.7508 10.1179 74.4482 9.76051 74.0598 9.52424C73.5976 9.27184 73.0775 9.14886 72.553 9.16797C72.1052 9.16805 71.6608 9.24549 71.2387 9.39692C70.8055 9.55158 70.3966 9.76896 70.0248 10.0424C69.9045 10.1301 69.7879 10.2254 69.6732 10.3253V9.16911L67.9654 9.42379V17.998H69.6732V11.5379C69.8743 11.4042 70.0841 11.2844 70.301 11.1791C70.5666 11.0516 70.8443 10.952 71.1298 10.8817C71.3928 10.816 71.6626 10.7819 71.9335 10.7801C72.1822 10.7724 72.4299 10.8157 72.6618 10.9074C72.8536 10.9898 73.023 11.1179 73.1557 11.2807C73.3011 11.4701 73.4014 11.691 73.4487 11.9262C73.514 12.23 73.5449 12.5403 73.5408 12.8512V17.996H75.2485V12.4946C75.2497 12.1699 75.2281 11.8454 75.1838 11.5238C75.3774 11.395 75.5779 11.2771 75.7844 11.1706C76.0454 11.0372 76.3206 10.9346 76.6047 10.865C76.8733 10.7982 77.1486 10.7638 77.4251 10.7628C77.671 10.7569 77.9157 10.8002 78.1451 10.8905C78.3403 10.971 78.5128 11.0994 78.6473 11.264C78.793 11.4531 78.8933 11.674 78.9403 11.9092C79.0056 12.2131 79.0365 12.5235 79.0324 12.8345V17.996H80.7402V12.478C80.7617 11.8358 80.6594 11.1956 80.4388 10.5933C80.265 10.1394 79.9468 9.75738 79.5347 9.50756Z" fill="#9FDAF5"/>
<path d="M83.2683 17.9969H84.9761V9.16798L83.2683 9.42267V17.9969Z" fill="#9FDAF5"/>
<path d="M85.1435 6.03516C85.0441 5.86101 84.903 5.71503 84.7333 5.6107C84.5595 5.50306 84.3594 5.44723 84.1557 5.44966C83.9496 5.4479 83.7468 5.50363 83.5697 5.6107C83.3951 5.71435 83.2484 5.86016 83.1428 6.03516C83.0366 6.2115 82.9814 6.41457 82.9837 6.62119C82.982 6.83031 83.037 7.03588 83.1428 7.21543C83.245 7.39318 83.3924 7.53979 83.5697 7.6399C83.7485 7.74197 83.9506 7.79467 84.1557 7.79272C84.3583 7.79535 84.5578 7.74256 84.7333 7.6399C84.9057 7.53902 85.0475 7.39223 85.1435 7.21543C85.2442 7.03414 85.2961 6.82923 85.2942 6.62119C85.2967 6.41567 85.2446 6.21328 85.1435 6.03516Z" fill="#9FDAF5"/>
</svg>

<svg xmlns="http://www.w3.org/2000/svg" viewBox="0 0 87 24"><path fill="#fff" d="M0 17.997V5.998h4v12H0ZM9.244 7.908l2.264 10.09H7.2l-2.704-12h2.417a2.276 2.276 0 0 1 1.513.55c.42.346.66.826.819 1.36ZM12 17.998v-12h4v12h-4Zm7.01-7.437a2.382 2.382 0 0 1-2.4-2.4 2.301 2.301 0 0 1 .322-1.2A2.41 2.41 0 0 1 20.21 6.1c.356.21.653.506.862.862.215.363.326.778.321 1.2a2.35 2.35 0 0 1-.321 1.208 2.4 2.4 0 0 1-.862.87 2.3 2.3 0 0 1-1.2.321ZM22 17.997V5.998h4v12h-4Zm8.974-5.441c.01.011.095.15.253.414s.364.602.617 1.014a315.936 315.936 0 0 1 1.597 2.62c.247.41.529.875.845 1.393H29.96c-.27-.44-.516-.836-.736-1.191-.22-.355-.453-.738-.7-1.15-.248-.41-.493-.81-.736-1.2-.242-.388-.45-.73-.625-1.022-.175-.292-.296-.49-.363-.591a1.747 1.747 0 0 1-.287-.845c.016-.29.11-.57.27-.812.067-.112.191-.312.371-.6a182.106 182.106 0 0 0 1.37-2.23l.7-1.158.736-1.2h4.326l-3.346 5.459a1.08 1.08 0 0 0-.17.54c.012.203.083.397.204.559Z"/><path fill="#9FDAF5" d="M45.656 12.36a3.183 3.183 0 0 0-.837-.62 6.48 6.48 0 0 0-1.013-.416 11.4 11.4 0 0 0-1.105-.289c-.29-.067-.56-.135-.812-.203a3.69 3.69 0 0 1-.67-.247 2.206 2.206 0 0 1-.51-.34 1.223 1.223 0 0 1-.327-.474 1.855 1.855 0 0 1-.108-.671 2.068 2.068 0 0 1 .108-.696c.07-.198.184-.376.335-.518.157-.146.335-.266.528-.356.22-.102.454-.171.695-.204.285-.041.574-.061.862-.06.263 0 .525.015.787.043.264.028.527.07.787.127.252.056.501.127.745.212.228.08.45.18.661.297l.235-1.494a4.138 4.138 0 0 0-.745-.305 9.914 9.914 0 0 0-.796-.204 7.845 7.845 0 0 0-.82-.127 8.457 8.457 0 0 0-.854-.043 7.033 7.033 0 0 0-1.758.204c-.49.12-.953.333-1.364.628-.38.276-.684.644-.888 1.07a3.499 3.499 0 0 0-.31 1.528c-.009.407.056.813.193 1.196.12.322.306.614.544.858.236.239.507.44.804.594.314.165.642.301.98.408.351.113.711.21 1.08.289.3.067.58.138.837.212.238.067.47.155.694.263.192.092.37.212.528.357.15.142.266.316.343.51.089.232.131.48.126.73.004.264-.036.528-.118.78-.073.218-.187.42-.335.594a1.613 1.613 0 0 1-.535.408 2.675 2.675 0 0 1-.729.22c-.307.048-.618.071-.928.069-.303-.001-.605-.021-.905-.06-.312-.04-.625-.093-.938-.162a9.296 9.296 0 0 1-.912-.246 17.043 17.043 0 0 1-.845-.297l.217 1.681c.286.108.576.202.871.28.267.071.538.128.812.17.262.04.525.07.787.093.263.023.527.035.795.034.6.004 1.197-.058 1.783-.186a4.237 4.237 0 0 0 1.457-.612c.414-.278.749-.661.971-1.112a3.805 3.805 0 0 0 .343-1.706 3.88 3.88 0 0 0-.192-1.29 2.515 2.515 0 0 0-.554-.917ZM55.677 16.927a.754.754 0 0 1-.653-.271 1.477 1.477 0 0 1-.184-.9l.033-3.498a4.13 4.13 0 0 0-.134-1.086 2.677 2.677 0 0 0-.402-.867 2.283 2.283 0 0 0-.694-.628 3.531 3.531 0 0 0-1.013-.39 5.88 5.88 0 0 0-1.323-.136c-.353 0-.705.022-1.055.068-.33.042-.658.107-.98.195a8.028 8.028 0 0 0-.878.297l-.201 1.444a9.997 9.997 0 0 1 1.523-.425 6.07 6.07 0 0 1 .695-.093c.229-.017.455-.026.678-.026.342-.007.682.033 1.013.119.242.061.464.184.645.357.162.168.277.376.335.603.071.28.105.568.1.857l-.002.426-1.956.134a5.142 5.142 0 0 0-1.942.441c-.46.204-.856.53-1.148.943a2.215 2.215 0 0 0-.376 1.248c-.004.417.097.83.293 1.197.205.378.513.687.887.891.457.241.967.358 1.482.34a3.81 3.81 0 0 0 1.414-.238c.392-.155.75-.386 1.055-.679.116-.112.226-.231.33-.356.032.176.094.345.181.5.15.26.379.464.653.578.303.123.628.184.954.178.101 0 .198-.003.293-.008.093-.006.186-.02.277-.043l.242-.06c.066-.014.13-.034.193-.059l.184-1.137a1.465 1.465 0 0 1-.284.068 1.9 1.9 0 0 1-.235.016Zm-2.788-.764c-.181.146-.378.271-.586.374a2.618 2.618 0 0 1-.653.22 3.656 3.656 0 0 1-.712.068 1.86 1.86 0 0 1-.794-.152 1.096 1.096 0 0 1-.495-.433 1.283 1.283 0 0 1-.167-.67c-.016-.284.06-.565.218-.8.182-.215.429-.364.703-.423a5.036 5.036 0 0 1 1.306-.136h1.466l-.007 1.685a2.29 2.29 0 0 1-.279.267ZM53.952 5.11h-1.808l-1.423 3.04h1.306l1.925-3.04ZM64.224 9.686a3.56 3.56 0 0 0-2-.535 5.045 5.045 0 0 0-1.24.161 5.342 5.342 0 0 0-1.49.641v-.785l-1.708.272v12.122h1.708v-3.801l.034.015c.309.13.632.224.962.28.39.066.785.097 1.18.094a4.137 4.137 0 0 0 2.152-.56 4.008 4.008 0 0 0 1.507-1.622 5.489 5.489 0 0 0 .56-2.59 5.344 5.344 0 0 0-.426-2.207 3.4 3.4 0 0 0-1.24-1.485Zm-.444 5.68c-.2.45-.538.825-.962 1.069-.472.25-1 .373-1.532.356a4.696 4.696 0 0 1-1.791-.346v-5.358c.021-.01.044-.024.066-.034.246-.114.475-.21.687-.29a3.389 3.389 0 0 1 1.188-.22 3.062 3.062 0 0 1 1.49.331c.404.223.72.58.896 1.01.213.551.313 1.14.293 1.732a4.1 4.1 0 0 1-.335 1.75ZM79.535 9.508a2.882 2.882 0 0 0-1.49-.357 3.872 3.872 0 0 0-1.323.23 4.647 4.647 0 0 0-1.206.653 6.123 6.123 0 0 0-.594.509 2.12 2.12 0 0 0-.862-1.019 2.921 2.921 0 0 0-1.507-.356c-.448 0-.892.077-1.314.229a4.738 4.738 0 0 0-1.566.928V9.17l-1.708.255v8.574h1.708v-6.46a5.37 5.37 0 0 1 .628-.359 4.28 4.28 0 0 1 .829-.297c.263-.066.533-.1.803-.102.25-.008.497.036.729.127a1.3 1.3 0 0 1 .494.374c.145.19.245.41.293.645.065.304.096.614.092.925v5.145h1.708v-5.501c0-.325-.02-.65-.065-.971.193-.129.394-.247.6-.353.261-.134.537-.236.82-.306a3.45 3.45 0 0 1 .821-.102c.246-.006.49.037.72.127.195.081.368.21.502.374.146.19.246.41.293.645.066.304.097.614.092.925v5.162h1.708v-5.518a4.995 4.995 0 0 0-.301-1.885 2.18 2.18 0 0 0-.904-1.085ZM83.268 17.997h1.708V9.168l-1.708.255v8.574ZM85.144 6.035a1.19 1.19 0 0 0-.41-.424 1.072 1.072 0 0 0-.578-.161 1.114 1.114 0 0 0-.586.16c-.175.104-.322.25-.427.425-.106.176-.162.38-.16.586-.001.21.054.415.16.594a1.16 1.16 0 0 0 1.013.577 1.099 1.099 0 0 0 .988-.577c.1-.18.152-.386.15-.594a1.159 1.159 0 0 0-.15-.586Z"/></svg>
